X: 04051
T: LILI'S JIG
T: (Lee-Lee's)
C: Bob McQuillen 24 Sept 78
B: Bob's Note Book 04 #51
R: jig
Z: 2020 John Chambers <jc:trillian.mit.edu>
M: 6/8
L: 1/8
K: D	% and Bm
B \
| Adf edB | Adf a2g | fef gea | fdf edB |\
| Adf edB | Adf afd | Ace gec | edd d2 :|
|: c \
| dBB FBB | gfe dcB | Bcd cde | gfe f2c |\
| dBB F2g | fga bag | fed cfe | dBB B2 :|
%%begintext align
%% Lili Thomas is truly one of
%% the superlatives in my life.
%% Love to you always, Lili - Mac
%%endtext

%%sep 1 1 500

%%sep 1 1 500

